X: 228
T: Tossing on the Waves
B: O'Neill's 228
N: "Playful"
N: "Collected by J.O'Neill"
Z: 1997 by John Chambers <jc@trillian.mit.edu>
M: 6/8
L: 1/8
K:G
  B2B (dcB) | (c2A) (B2G) | (GBd) (GBd) | (FAd) (FAd) \
| (GAB) (cde) | (f2e) d2c | (c2B) (c2d) | (GBA) G3 ||
|| (ba).g (fe).^d | (egb) e3 | gfe dcB | ceg c'3 \
| (Bcd edc) | (BAB) (GAB) | (c2B) (c2d) | (GBA) G3 ||


